components/Common/Svg/svgs/designing.svg

<svg width="40" height="40" viewBox="0 0 40 40" fill="none" xmlns="http://www.w3.org/2000/svg">
<path fill-rule="evenodd" clip-rule="evenodd" d="M10 3C11.1046 3 12 3.89542 12 4.99998V9.99992C12 11.1045 11.1046 11.9999 10 11.9999H5C3.89543 11.9999 3 11.1045 3 9.99992V4.99998C3 3.89542 3.89543 3 5 3H10ZM10 9.99992V4.99998H5V9.99992H10ZM12.5 6.99995C12.5 6.44767 12.9477 5.99996 13.5 5.99996H19.6324H26.2288C26.781 5.99996 27.2288 6.44767 27.2288 6.99995C27.2288 7.55223 26.781 7.99994 26.2288 7.99994H19.6324H13.5C12.9477 7.99994 12.5 7.55223 12.5 6.99995ZM7 12.4999C7.55228 12.4999 8 12.9476 8 13.4999V19.8395V26.2296C8 26.7819 7.55228 27.2296 7 27.2296C6.44772 27.2296 6 26.7819 6 26.2296V19.8395V13.4999C6 12.9476 6.44772 12.4999 7 12.4999ZM33 12.4999C33.5523 12.4999 34 12.9476 34 13.4999V19.8395V26.2296C34 26.7819 33.5523 27.2296 33 27.2296C32.4477 27.2296 32 26.7819 32 26.2296V19.8395V13.4999C32 12.9476 32.4477 12.4999 33 12.4999ZM12.5 32.9996C12.5 32.4474 12.9477 31.9996 13.5 31.9996H19.6324H26.2288C26.781 31.9996 27.2288 32.4474 27.2288 32.9996C27.2288 33.5519 26.781 33.9996 26.2288 33.9996H19.6324H13.5C12.9477 33.9996 12.5 33.5519 12.5 32.9996ZM12 29.9997C12 28.8951 11.1046 27.9997 10 27.9997H5C3.89543 27.9997 3 28.8951 3 29.9997V34.9996C3 36.1042 3.89543 36.9996 5 36.9996H10C11.1046 36.9996 12 36.1042 12 34.9996V29.9997ZM10 29.9997V34.9996H5V29.9997H10ZM35 3C36.1046 3 37 3.89542 37 4.99998V9.99992C37 11.1045 36.1046 11.9999 35 11.9999H30C28.8954 11.9999 28 11.1045 28 9.99992V4.99998C28 3.89542 28.8954 3 30 3H35ZM35 9.99992V4.99998H30V9.99992H35ZM37 29.9997C37 28.8951 36.1046 27.9997 35 27.9997H30C28.8954 27.9997 28 28.8951 28 29.9997V34.9996C28 36.1042 28.8954 36.9996 30 36.9996H35C36.1046 36.9996 37 36.1042 37 34.9996V29.9997ZM35 29.9997V34.9996H30V29.9997H35Z" fill="#161616"/>
</svg>

<svg width="40" height="40" viewBox="0 0 40 40" fill="none" xmlns="http://www.w3.org/2000/svg"><path fill-rule="evenodd" clip-rule="evenodd" d="M10 3a2 2 0 0 1 2 2v5a2 2 0 0 1-2 2H5a2 2 0 0 1-2-2V5a2 2 0 0 1 2-2h5Zm0 7V5H5v5h5Zm2.5-3a1 1 0 0 1 1-1h12.729a1 1 0 0 1 0 2H13.5a1 1 0 0 1-1-1ZM7 12.5a1 1 0 0 1 1 1v12.73a1 1 0 1 1-2 0V13.5a1 1 0 0 1 1-1Zm26 0a1 1 0 0 1 1 1v12.73a1 1 0 1 1-2 0V13.5a1 1 0 0 1 1-1ZM12.5 33a1 1 0 0 1 1-1h12.729a1 1 0 0 1 0 2H13.5a1 1 0 0 1-1-1Zm-.5-3a2 2 0 0 0-2-2H5a2 2 0 0 0-2 2v5a2 2 0 0 0 2 2h5a2 2 0 0 0 2-2v-5Zm-2 0v5H5v-5h5ZM35 3a2 2 0 0 1 2 2v5a2 2 0 0 1-2 2h-5a2 2 0 0 1-2-2V5a2 2 0 0 1 2-2h5Zm0 7V5h-5v5h5Zm2 20a2 2 0 0 0-2-2h-5a2 2 0 0 0-2 2v5a2 2 0 0 0 2 2h5a2 2 0 0 0 2-2v-5Zm-2 0v5h-5v-5h5Z" fill="#161616"/></svg>
